X: 1
T:Jenny Dang the Weaver
M:C
L:1/8
Q:80
C:Arr. Hamish Moore
S:Reel
K:HP
{g}dA{gAGAG}A2{g}AG{g}AB|
{g}dA{gAGAG}A2{g}f2{g}ef|
{g}dB{g}B{G}B{g}BA{g}Bd|  !
{g}AB{g}de{g}faef{g}dA{gAGAG}A2{g}AG{g}AB|
{g}dA{gAGAG}A2{g}f2{g}ef|
{g}dB{g}B{G}B{g}BA{g}Bd|  !
{G}AB{g}de{g}f2{g}ef:|
{g}d{c}d{g}fd{g}ef{a}ge|
{g}d{c}d{g}fd{g}e2{g}dB|  !
{g}d{c}d{g}fd{g}ef{a}ge|
{ag}a2{g}ag{a}f2{g}ef{g}d{c}d{g}fd{g}ef{a}ge|
{g}d{c}d{g}fd{g}e2{g}dB|  !
{g}de{g}fd{g}ef{a}ge|
aA{gAGAG}A2{g}faef:|
